Origami/64x64/apps/metronome.svg

<svg width="64" height="64" version="1.1" viewBox="0 0 64 64" xmlns="http://www.w3.org/2000/svg">
 <path d="m4.3074713 57.534951-0.1833955 0.667278c-0.413772 1.492983 1.2439933 2.797771 2.7899796 2.797771h50.231619c1.545966 0 3.203731-1.304788 2.789979-2.797771l-0.183401-0.663282c-0.468613 0.854675-1.555696 1.463216-2.606578 1.463216h-50.231619c-1.0527603 0-2.1394838-0.60994-2.6065781-1.467212z" style="opacity:.2"/>
 <path d="m59.935201 57.2-13.967798-50.4c-0.414221-1.4946001-1.245921-2.8000001-2.7936-2.8000001h-22.348c-1.547639 0-2.3794 1.3054-2.7936 2.8000001l-13.967799 50.4c-0.4142199 1.4946 1.24592 2.8 2.7935999 2.8h50.283998c1.547639 0 3.2078-1.3054 2.7936-2.8z" style="fill:#37a0f2"/>
 <path d="m20.826172 4c-1.547639 0-2.380722 1.3061811-2.794922 2.8007812l-13.966797 50.398438c-0.0904604 0.326402-0.0670496 0.640771 0.0175781 0.9375l13.949219-50.335938c0.4142-1.4946001 1.247283-2.8007812 2.794922-2.8007812h22.347656c1.547679 0 2.378748 1.3061811 2.792969 2.8007812l13.951172 50.335938c0.084631-0.296729 0.108034-0.611098 0.017578-0.9375l-13.96875-50.398438c-0.414221-1.4946001-1.24529-2.8007812-2.792969-2.8007812h-22.347656z" style="fill:#ffffff;opacity:.2"/>
 <circle cx="32" cy="49" r="8" style="opacity:.2"/>
 <circle cx="32" cy="48" r="8" style="fill:#ffffff"/>
 <rect transform="matrix(.86602541 .5 -.5 .86602541 0 0)" x="49.67" y="-11.63" width="5.994" height="41.955" rx="2.883" ry="3.258" style="opacity:.2"/>
 <rect transform="matrix(.86602541 .5 -.5 .86602541 0 0)" x="48.67" y="-13.37" width="5.994" height="41.955" rx="2.883" ry="3.258" style="fill:#fe4343"/>
 <path d="M 38,5 31.999999,15 26,5 Z" style="opacity:.2"/>
 <path d="M 38,4 31.999999,14 26,4 Z" style="fill:#ffffff"/>
</svg>

<svg xmlns="http://www.w3.org/2000/svg" width="64" height="64" version="1.1" viewBox="0 0 64 64">
 <path style="opacity:0.2" d="M 4.3074713,57.534951 4.1240758,58.202229 C 3.7103038,59.695212 5.3680691,61 6.9140554,61 l 50.2316186,0 c 1.545966,0 3.203731,-1.304788 2.789979,-2.797771 l -0.183401,-0.663282 c -0.468613,0.854675 -1.555696,1.463216 -2.606578,1.463216 l -50.2316186,0 c -1.0527603,0 -2.1394838,-0.60994 -2.6065781,-1.467212 z"/>
 <path style="fill:#37a0f2" d="M 59.935201,57.2 45.967403,6.8000001 C 45.553182,5.3054 44.721482,4 43.173803,4 l -22.348,0 c -1.547639,0 -2.3794,1.3054 -2.7936,2.8000001 L 4.0644041,57.2 C 3.6501842,58.6946 5.3103241,60 6.858004,60 l 50.283998,0 c 1.547639,0 3.2078,-1.3054 2.7936,-2.8 z"/>
 <path style="fill:#ffffff;opacity:0.2" d="M 20.826172 4 C 19.278533 4 18.44545 5.3061811 18.03125 6.8007812 L 4.0644531 57.199219 C 3.9739927 57.525621 3.9974035 57.83999 4.0820312 58.136719 L 18.03125 7.8007812 C 18.44545 6.3061811 19.278533 5 20.826172 5 L 43.173828 5 C 44.721507 5 45.552576 6.3061811 45.966797 7.8007812 L 59.917969 58.136719 C 60.0026 57.83999 60.026003 57.525621 59.935547 57.199219 L 45.966797 6.8007812 C 45.552576 5.3061811 44.721507 4 43.173828 4 L 20.826172 4 z"/>
 <circle style="opacity:0.2" cx="32" cy="49" r="8"/>
 <circle style="fill:#ffffff" cx="32" cy="48" r="8"/>
 <rect style="opacity:0.2" width="5.994" height="41.955" x="49.67" y="-11.63" rx="2.883" ry="3.258" transform="matrix(0.86602541,0.5,-0.5,0.86602541,0,0)"/>
 <rect style="fill:#fe4343" width="5.994" height="41.955" x="48.67" y="-13.37" rx="2.883" ry="3.258" transform="matrix(0.86602541,0.5,-0.5,0.86602541,0,0)"/>
 <path style="opacity:0.2" d="M 38,5 31.999999,15 26,5 Z"/>
 <path style="fill:#ffffff" d="M 38,4 31.999999,14 26,4 Z"/>
</svg>
